mobile/assets/icons/svgs/custom/dog-wash-dark.svg

<svg fill="none" height="500" viewBox="0 0 500 500" width="500" xmlns="http://www.w3.org/2000/svg"><g fill="#000"><path d="m294 253.84h-13.34l6.37 6.31c2.47 2.44 5.24 2.66 7.27.7s1.83-4.61-.3-7.01z"/><path d="m282.66 242.52c-.539-.464-.974-1.037-1.274-1.682s-.459-1.347-.466-2.058h-15.47l10.12 10h13.43c-2.127-2.067-4.24-4.153-6.34-6.26z"/><path d="m233.79 248.79h.38v.01h-.38z"/></g><path d="m355.52 238.9c-.267-.053-.537-.093-.81-.12h-216.55c-.58 0-1.21 0-1.86 0h-.48c-.47-.025-.94-.025-1.41 0-2.814.238-5.465 1.419-7.525 3.351-2.06 1.931-3.408 4.501-3.827 7.294-.418 2.792.117 5.645 1.52 8.095 1.403 2.451 3.592 4.357 6.212 5.41.744.175 1.393.627 1.815 1.265.422.637.585 1.412.455 2.165-.08 9.27-.06 18.55 0 27.82-.003 10.992 2.378 21.853 6.979 31.835 4.6 9.982 11.312 18.848 19.671 25.985 5.228 4.474 11.046 8.209 17.29 11.1 3.426 1.602 6.97 2.939 10.6 4 6.952 2.027 14.158 3.054 21.4 3.05h28.6 42.46c3.793.031 7.583-.25 11.33-.84 3.3-.548 6.563-1.299 9.77-2.25 3.631-1.069 7.177-2.406 10.61-4 10.433-4.764 19.638-11.851 26.91-20.72 11.272-13.943 17.342-31.372 17.17-49.3 0-9 0-17.92.05-26.87 0-.94.55-2.5 1.21-2.73 4.72-1.64 7.25-5.16 8.85-9.62v-5.05c-1.78-5.09-4.89-8.89-10.44-9.87zm-11.69 70.8c-2.384 9.916-7.04 19.143-13.6 26.952-6.56 7.81-14.844 13.988-24.2 18.048-3.505 1.527-7.139 2.735-10.86 3.61-4.59 1.076-9.286 1.629-14 1.65l-20.14.06c-8.947 0-17.9.02-26.86.06h-5.9c-6.847-.053-13.73-.08-20.65-.08-4.735-.02-9.452-.58-14.06-1.67-3.719-.872-7.35-2.081-10.85-3.61-22.78-9.94-39.12-32.77-39.52-58.79-.17-10.51 0-21 0-31.75h202.66c-.92 15.32 1.47 30.54-2.02 45.52zm6.55-55.88c-15.82 0-31.633 0-47.44 0h-164.21c-1 0-2 .3-2.82-.07-1.037-.652-1.987-1.432-2.83-2.32.869-.959 1.834-1.827 2.88-2.59.63-.36 1.65-.07 2.49-.07h212c2 0 5.12-.94 5.21 2.37.08 3.68-3.18 2.67-5.28 2.68z" fill="#fff"/><path d="m355.64 251.19c.1 3.63-3.16 2.62-5.26 2.63-15.82 0-31.633 0-47.44 0h-164.21c-1 0-2 .3-2.82-.07-1.036-.652-1.987-1.432-2.83-2.32.869-.959 1.834-1.827 2.88-2.59.63-.36 1.65-.07 2.49-.07h212c2.02.05 5.1-.89 5.19 2.42z" fill="#daaa00"/><path d="m233.79 248.8v-.01h.38v.01" fill="#daaa00"/><path d="m351.72 162.8c-6.08 0-10.57-3.12-13.23-8.64-1.86-3.85-3.57-7.78-5.43-11.63-3.4-7.1-9.13-10.72-16.95-10.86-6.86-.13-13.72-.09-20.58 0-16.14.2-30.15 11.67-32.38 27.54-1.12 7.91-.5 16.07-.44 24.1.087 1.894.629 3.74 1.58 5.38 1.14 2.07.84 3.68-.67 5.44h-.07c-.66-.44-5.84-3.64-11.49-1-.92.446-1.786.996-2.58 1.64-1.657 1.292-3.06 2.878-4.14 4.68-2 3.51-1.21 6.07-1.21 6.07h-49.53c-7.535-.122-14.915 2.146-21.08 6.48-3.18 1.888-5.96 4.382-8.18 7.34-4.25 5.586-6.901 12.223-7.67 19.2l5.06 4.81 2.93-4.81c.799-6.84 4.044-13.161 9.136-17.798 5.092-4.636 11.689-7.276 18.574-7.432 17.66-.25 35.32-.09 53 0 .913.029 1.785.384 2.46 1 8.207 8.093 16.41 16.197 24.61 24.31l10.11 10h11c-3.38-3.333-6.753-6.667-10.12-10-10.04-9.953-20.077-19.903-30.11-29.85-2.54-2.52-2.74-5.41-.64-7.44s4.74-1.74 7.24.72c8.793 8.667 17.567 17.35 26.32 26.05.67.66 1.33 1.33 2 2 2.28 2.22 4.55 2.47 6.26.69s1.37-3.92-.93-6.25c-1.4-1.4-2.81-2.76-4.2-4.17l-20.4-20.88c.24-.47.64-1.2 1.07-2 3.215 2.416 7.038 3.89 11.042 4.259 4.005.368 8.033-.384 11.634-2.172 3.602-1.788 6.636-4.543 8.763-7.956 2.126-3.413 3.262-7.35 3.281-11.371.09-12.51 0-25 0-37.55v-3.42c4.72.26 9.34.16 13.85.86 3.17.48 5.26 3 6.62 6 1.75 3.81 3.42 7.66 5.27 11.42 4.1 8.37 10.89 12.79 20.18 13.16 10 .4 17.68 7.73 17.78 17.27s-7.71 17.31-17.82 17.6c-6.94.2-13.89 0-20.83.06-9.21 0-14.93 5.54-15.15 14.77-.117 5.956-1.359 11.836-3.66 17.33-.1.25-.22.5-.34.77-.29.62-.66 1.36-1.18 2.46-.75-.91-1.38-1.72-2-2.46s-.95-1.13-1.45-1.64c-2.19-2.22-4.31-2.41-6.06-.7-.659.61-1.066 1.445-1.14 2.34.007.711.166 1.413.466 2.058s.735 1.218 1.274 1.682c2.1 2.113 4.207 4.21 6.32 6.29h11c-.737-.845-1.528-1.64-2.37-2.38 1.41-2.84 2.53-5.31 3.42-7.65 2.21-5.79 3-10.71 3.36-18.2.22-4.87 2.54-7.1 7.48-7.11 6.77 0 13.54.08 20.32 0 14.59-.25 26-11.18 26-25.06-.008-6.726-2.686-13.174-7.444-17.927-4.759-4.753-11.21-7.423-17.936-7.423zm-53.72 17.56c-.066 3.646-1.562 7.119-4.166 9.671-2.605 2.552-6.108 3.977-9.754 3.969-1.805.025-3.597-.308-5.272-.979-1.675-.672-3.201-1.668-4.489-2.933s-2.312-2.772-3.014-4.435-1.067-3.448-1.075-5.253c0-6.93-.44-14 .69-20.75 2.06-12.52 14.8-21.6 27.11-20v32.24c-.03 2.81.06 5.64-.03 8.47z" fill="#fff"/><path d="m144.69 189.14c-3.758 0-7.431 1.114-10.556 3.202-3.124 2.088-5.56 5.055-6.998 8.527s-1.814 7.292-1.081 10.978c.733 3.685 2.543 7.071 5.2 9.728s6.043 4.467 9.728 5.2c3.686.733 7.506.357 10.978-1.081s6.439-3.874 8.527-6.998c2.088-3.125 3.202-6.798 3.202-10.556-.013-5.035-2.019-9.86-5.58-13.42-3.56-3.561-8.385-5.567-13.42-5.58zm0 31.62c-2.488 0-4.92-.738-6.989-2.12s-3.681-3.347-4.633-5.646c-.953-2.299-1.202-4.828-.716-7.268.485-2.44 1.683-4.682 3.443-6.441 1.759-1.76 4-2.958 6.441-3.443 2.44-.486 4.969-.237 7.268.716 2.299.952 4.264 2.564 5.646 4.633s2.12 4.501 2.12 6.989c-.005 3.335-1.332 6.532-3.69 8.89-2.359 2.358-5.555 3.685-8.89 3.69z" fill="#fff"/><path d="m157.66 129.83c-3.039-.004-6.01.894-8.539 2.579s-4.5 4.083-5.666 6.889-1.473 5.895-.882 8.876c.59 2.981 2.051 5.72 4.199 7.87 2.147 2.15 4.884 3.615 7.864 4.209 2.98.595 6.07.292 8.877-.87 2.808-1.162 5.208-3.131 6.897-5.657 1.689-2.527 2.59-5.497 2.59-8.536-.005-4.069-1.622-7.969-4.498-10.848-2.875-2.879-6.773-4.501-10.842-4.512zm0 24.57c-1.822 0-3.602-.54-5.117-1.552-1.514-1.012-2.695-2.451-3.392-4.134-.697-1.682-.879-3.534-.524-5.321.355-1.786 1.233-3.427 2.521-4.715 1.288-1.289 2.929-2.166 4.715-2.521 1.787-.355 3.639-.173 5.322.524 1.682.697 3.121 1.878 4.133 3.392 1.012 1.515 1.552 3.295 1.552 5.117-.005 2.441-.977 4.781-2.703 6.507s-4.066 2.698-6.507 2.703z" fill="#fff"/><path d="m166.87 145.19c.002 1.824-.537 3.608-1.55 5.126-1.012 1.518-2.452 2.701-4.137 3.4s-3.54.883-5.329.527c-1.79-.355-3.434-1.233-4.724-2.523-1.29-1.291-2.168-2.934-2.523-4.724-.356-1.789-.172-3.644.527-5.329s1.882-3.125 3.4-4.137c1.518-1.013 3.302-1.552 5.126-1.55 2.442.003 4.783.974 6.509 2.7 1.727 1.727 2.698 4.068 2.701 6.51z" fill="#daaa00"/><path d="m211.5 148.51c-4.778.002-9.448 1.421-13.42 4.077s-7.067 6.429-8.894 10.844-2.304 9.273-1.37 13.959c.933 4.685 3.235 8.989 6.614 12.367s7.684 5.678 12.37 6.61c4.687.931 9.544.452 13.958-1.377s8.187-4.926 10.841-8.898c2.654-3.973 4.071-8.644 4.071-13.422-.008-6.407-2.557-12.549-7.088-17.078-4.532-4.53-10.675-7.077-17.082-7.082zm0 41.9c-3.509 0-6.938-1.04-9.856-2.99-2.917-1.949-5.191-4.72-6.534-7.961-1.342-3.242-1.694-6.809-1.009-10.25.684-3.441 2.374-6.602 4.855-9.083s5.642-4.171 9.083-4.855c3.441-.685 7.008-.333 10.25 1.009 3.241 1.343 6.012 3.617 7.961 6.534 1.95 2.918 2.99 6.347 2.99 9.856-.005 4.703-1.876 9.212-5.202 12.538-3.325 3.326-7.835 5.197-12.538 5.202z" fill="#fff"/><path d="m193.56 358.31-5.56 8.12-.45.66-16.65 24.33c-.503.737-1.179 1.34-1.969 1.757-.789.416-1.668.634-2.561.633h-17.8c-.792-.001-1.575-.173-2.294-.504-.72-.332-1.36-.814-1.876-1.415-.517-.6-.897-1.306-1.116-2.067-.22-.761-.272-1.561-.154-2.344l7-45.28v-.18l.23-1.51 10.87 1.67-1.46 9.47-.06.38-4.71 30.78h8.49l13.51-19.71.35-.51 5.4-7.89c3.487 1.527 7.105 2.735 10.81 3.61z" fill="#fff"/><path d="m344.32 391.89c-.515.603-1.154 1.086-1.874 1.418-.72.331-1.504.503-2.296.502h-17.81c-.894 0-1.774-.218-2.565-.634-.791-.417-1.469-1.019-1.975-1.756l-16.67-24.42-.54-.79-5.42-7.91c3.709-.864 7.334-2.059 10.83-3.57l5.22 7.63.49.72 13.5 19.73h8.5l-4.71-30.68-.13-.83-1.4-9.12 10.87-1.67.17 1.08.12.77 6.93 45.12c.126.781.08 1.58-.134 2.342-.214.761-.592 1.467-1.106 2.068z" fill="#fff"/><path d="m225.69 370.16h8.1v.01h-8.1z" fill="#000"/><path d="m234.17 360.11h-5.9 32.73c-8.927-.007-17.87-.007-26.83 0z" fill="#000"/></svg>

<svg width="500" height="500" viewBox="0 0 500 500" fill="none" xmlns="http://www.w3.org/2000/svg">
<path d="M294 253.84H280.66L287.03 260.15C289.5 262.59 292.27 262.81 294.3 260.85C296.33 258.89 296.13 256.24 294 253.84Z" fill="black"/>
<path d="M282.66 242.52C282.121 242.056 281.686 241.483 281.386 240.838C281.086 240.193 280.927 239.491 280.92 238.78H265.45L275.57 248.78H289C286.873 246.713 284.76 244.627 282.66 242.52Z" fill="black"/>
<path d="M233.79 248.79H234.17V248.8H233.79V248.79Z" fill="black"/>
<path d="M355.52 238.9C355.253 238.847 354.983 238.807 354.71 238.78H138.16C137.58 238.78 136.95 238.78 136.3 238.78H135.82C135.35 238.755 134.88 238.755 134.41 238.78C131.596 239.018 128.945 240.199 126.885 242.131C124.825 244.062 123.477 246.632 123.058 249.425C122.64 252.217 123.175 255.07 124.578 257.52C125.981 259.971 128.17 261.877 130.79 262.93C131.534 263.105 132.183 263.557 132.605 264.195C133.027 264.832 133.19 265.607 133.06 266.36C132.98 275.63 133 284.91 133.06 294.18C133.057 305.172 135.438 316.033 140.039 326.015C144.639 335.997 151.351 344.863 159.71 352C164.938 356.474 170.756 360.209 177 363.1C180.426 364.702 183.97 366.039 187.6 367.1C194.552 369.127 201.758 370.154 209 370.15H237.6H280.06C283.853 370.181 287.643 369.9 291.39 369.31C294.69 368.762 297.953 368.011 301.16 367.06C304.791 365.991 308.337 364.654 311.77 363.06C322.203 358.296 331.408 351.209 338.68 342.34C349.952 328.397 356.022 310.968 355.85 293.04C355.85 284.04 355.85 275.12 355.9 266.17C355.9 265.23 356.45 263.67 357.11 263.44C361.83 261.8 364.36 258.28 365.96 253.82V248.77C364.18 243.68 361.07 239.88 355.52 238.9ZM343.83 309.7C341.446 319.616 336.79 328.843 330.23 336.652C323.67 344.462 315.386 350.64 306.03 354.7C302.525 356.227 298.891 357.435 295.17 358.31C290.58 359.386 285.884 359.939 281.17 359.96L261.03 360.02C252.083 360.02 243.13 360.04 234.17 360.08H228.27C221.423 360.027 214.54 360 207.62 360C202.885 359.98 198.168 359.42 193.56 358.33C189.841 357.458 186.21 356.249 182.71 354.72C159.93 344.78 143.59 321.95 143.19 295.93C143.02 285.42 143.19 274.93 143.19 264.18H345.85C344.93 279.5 347.32 294.72 343.83 309.7ZM350.38 253.82C334.56 253.82 318.747 253.82 302.94 253.82H138.73C137.73 253.82 136.73 254.12 135.91 253.75C134.873 253.098 133.923 252.318 133.08 251.43C133.949 250.471 134.914 249.603 135.96 248.84C136.59 248.48 137.61 248.77 138.45 248.77H350.45C352.45 248.77 355.57 247.83 355.66 251.14C355.74 254.82 352.48 253.81 350.38 253.82Z" fill="white"/>
<path d="M355.64 251.19C355.74 254.82 352.48 253.81 350.38 253.82C334.56 253.82 318.747 253.82 302.94 253.82H138.73C137.73 253.82 136.73 254.12 135.91 253.75C134.874 253.098 133.923 252.318 133.08 251.43C133.949 250.471 134.914 249.603 135.96 248.84C136.59 248.48 137.61 248.77 138.45 248.77H350.45C352.47 248.82 355.55 247.88 355.64 251.19Z" fill="#DAAA00"/>
<path d="M233.79 248.8V248.79H234.17V248.8" fill="#DAAA00"/>
<path d="M351.72 162.8C345.64 162.8 341.15 159.68 338.49 154.16C336.63 150.31 334.92 146.38 333.06 142.53C329.66 135.43 323.93 131.81 316.11 131.67C309.25 131.54 302.39 131.58 295.53 131.67C279.39 131.87 265.38 143.34 263.15 159.21C262.03 167.12 262.65 175.28 262.71 183.31C262.797 185.204 263.339 187.05 264.29 188.69C265.43 190.76 265.13 192.37 263.62 194.13H263.55C262.89 193.69 257.71 190.49 252.06 193.13C251.14 193.576 250.274 194.126 249.48 194.77C247.823 196.062 246.42 197.648 245.34 199.45C243.34 202.96 244.13 205.52 244.13 205.52H194.6C187.065 205.398 179.685 207.666 173.52 212C170.34 213.888 167.56 216.382 165.34 219.34C161.09 224.926 158.439 231.563 157.67 238.54L162.73 243.35L165.66 238.54C166.459 231.7 169.704 225.379 174.796 220.742C179.888 216.106 186.485 213.466 193.37 213.31C211.03 213.06 228.69 213.22 246.37 213.31C247.283 213.339 248.155 213.694 248.83 214.31C257.037 222.403 265.24 230.507 273.44 238.62L283.55 248.62H294.55C291.17 245.287 287.797 241.953 284.43 238.62C274.39 228.667 264.353 218.717 254.32 208.77C251.78 206.25 251.58 203.36 253.68 201.33C255.78 199.3 258.42 199.59 260.92 202.05C269.713 210.717 278.487 219.4 287.24 228.1C287.91 228.76 288.57 229.43 289.24 230.1C291.52 232.32 293.79 232.57 295.5 230.79C297.21 229.01 296.87 226.87 294.57 224.54C293.17 223.14 291.76 221.78 290.37 220.37L269.97 199.49C270.21 199.02 270.61 198.29 271.04 197.49C274.255 199.906 278.078 201.38 282.082 201.749C286.087 202.117 290.115 201.365 293.716 199.577C297.318 197.789 300.352 195.034 302.479 191.621C304.605 188.208 305.741 184.271 305.76 180.25C305.85 167.74 305.76 155.25 305.76 142.7V139.28C310.48 139.54 315.1 139.44 319.61 140.14C322.78 140.62 324.87 143.14 326.23 146.14C327.98 149.95 329.65 153.8 331.5 157.56C335.6 165.93 342.39 170.35 351.68 170.72C361.68 171.12 369.36 178.45 369.46 187.99C369.56 197.53 361.75 205.3 351.64 205.59C344.7 205.79 337.75 205.59 330.81 205.65C321.6 205.65 315.88 211.19 315.66 220.42C315.543 226.376 314.301 232.256 312 237.75C311.9 238 311.78 238.25 311.66 238.52C311.37 239.14 311 239.88 310.48 240.98C309.73 240.07 309.1 239.26 308.48 238.52C307.86 237.78 307.53 237.39 307.03 236.88C304.84 234.66 302.72 234.47 300.97 236.18C300.311 236.79 299.904 237.625 299.83 238.52C299.837 239.231 299.996 239.933 300.296 240.578C300.596 241.223 301.031 241.796 301.57 242.26C303.67 244.373 305.777 246.47 307.89 248.55C311.557 248.55 315.223 248.55 318.89 248.55C318.153 247.705 317.362 246.91 316.52 246.17C317.93 243.33 319.05 240.86 319.94 238.52C322.15 232.73 322.94 227.81 323.3 220.32C323.52 215.45 325.84 213.22 330.78 213.21C337.55 213.21 344.32 213.29 351.1 213.21C365.69 212.96 377.1 202.03 377.1 188.15C377.092 181.424 374.414 174.976 369.656 170.223C364.897 165.47 358.446 162.8 351.72 162.8ZM298 180.36C297.934 184.006 296.438 187.479 293.834 190.031C291.229 192.583 287.726 194.008 284.08 194C282.275 194.025 280.483 193.692 278.808 193.021C277.133 192.349 275.607 191.353 274.319 190.088C273.031 188.823 272.007 187.316 271.305 185.653C270.603 183.99 270.238 182.205 270.23 180.4C270.23 173.47 269.79 166.4 270.92 159.65C272.98 147.13 285.72 138.05 298.03 139.65V171.89C298 174.7 298.09 177.53 298 180.36Z" fill="white"/>
<path d="M144.69 189.14C140.932 189.14 137.259 190.254 134.134 192.342C131.01 194.43 128.574 197.397 127.136 200.869C125.698 204.341 125.322 208.161 126.055 211.847C126.788 215.532 128.598 218.918 131.255 221.575C133.912 224.232 137.298 226.042 140.983 226.775C144.669 227.508 148.489 227.132 151.961 225.694C155.433 224.256 158.4 221.82 160.488 218.696C162.576 215.571 163.69 211.898 163.69 208.14C163.677 203.105 161.671 198.28 158.11 194.72C154.55 191.159 149.725 189.153 144.69 189.14ZM144.69 220.76C142.202 220.76 139.77 220.022 137.701 218.64C135.632 217.258 134.02 215.293 133.068 212.994C132.115 210.695 131.866 208.166 132.352 205.726C132.837 203.286 134.035 201.044 135.795 199.285C137.554 197.525 139.795 196.327 142.236 195.842C144.676 195.356 147.205 195.605 149.504 196.558C151.803 197.51 153.768 199.122 155.15 201.191C156.532 203.26 157.27 205.692 157.27 208.18C157.265 211.515 155.938 214.712 153.58 217.07C151.221 219.428 148.025 220.755 144.69 220.76Z" fill="white"/>
<path d="M157.66 129.83C154.621 129.826 151.65 130.724 149.121 132.409C146.592 134.094 144.621 136.492 143.455 139.298C142.289 142.104 141.982 145.193 142.573 148.174C143.163 151.155 144.624 153.894 146.772 156.044C148.919 158.194 151.656 159.659 154.636 160.253C157.616 160.848 160.706 160.545 163.513 159.383C166.321 158.221 168.721 156.252 170.41 153.726C172.099 151.199 173 148.229 173 145.19C172.995 141.121 171.378 137.221 168.502 134.342C165.627 131.463 161.729 129.841 157.66 129.83ZM157.66 154.4C155.838 154.4 154.058 153.86 152.543 152.848C151.029 151.836 149.848 150.397 149.151 148.714C148.454 147.032 148.272 145.18 148.627 143.393C148.982 141.607 149.86 139.966 151.148 138.678C152.436 137.389 154.077 136.512 155.863 136.157C157.65 135.802 159.502 135.984 161.185 136.681C162.867 137.378 164.306 138.559 165.318 140.073C166.33 141.588 166.87 143.368 166.87 145.19C166.865 147.631 165.893 149.971 164.167 151.697C162.441 153.423 160.101 154.395 157.66 154.4Z" fill="white"/>
<path d="M166.87 145.19C166.872 147.014 166.333 148.798 165.32 150.316C164.308 151.834 162.868 153.017 161.183 153.716C159.498 154.415 157.643 154.599 155.854 154.243C154.064 153.888 152.42 153.01 151.13 151.72C149.84 150.429 148.962 148.786 148.607 146.996C148.251 145.207 148.435 143.352 149.134 141.667C149.833 139.982 151.016 138.542 152.534 137.53C154.052 136.517 155.836 135.978 157.66 135.98C160.102 135.983 162.443 136.954 164.169 138.68C165.896 140.407 166.867 142.748 166.87 145.19Z" fill="#DAAA00"/>
<path d="M211.5 148.51C206.722 148.512 202.052 149.931 198.08 152.587C194.108 155.243 191.013 159.016 189.186 163.431C187.359 167.846 186.882 172.704 187.816 177.39C188.749 182.075 191.051 186.379 194.43 189.757C197.809 193.135 202.114 195.435 206.8 196.367C211.487 197.298 216.344 196.819 220.758 194.99C225.172 193.161 228.945 190.064 231.599 186.092C234.253 182.119 235.67 177.448 235.67 172.67C235.662 166.263 233.113 160.121 228.582 155.592C224.05 151.062 217.907 148.515 211.5 148.51ZM211.5 190.41C207.991 190.41 204.562 189.37 201.644 187.42C198.727 185.471 196.453 182.7 195.11 179.459C193.768 176.217 193.416 172.65 194.101 169.209C194.785 165.768 196.475 162.607 198.956 160.126C201.437 157.645 204.598 155.955 208.039 155.271C211.48 154.586 215.047 154.938 218.289 156.28C221.53 157.623 224.301 159.897 226.25 162.814C228.2 165.732 229.24 169.161 229.24 172.67C229.235 177.373 227.364 181.882 224.038 185.208C220.713 188.534 216.203 190.405 211.5 190.41Z" fill="white"/>
<path d="M193.56 358.31L188 366.43L187.55 367.09L170.9 391.42C170.397 392.157 169.721 392.76 168.931 393.177C168.142 393.593 167.263 393.811 166.37 393.81H148.57C147.778 393.809 146.995 393.637 146.276 393.306C145.556 392.974 144.916 392.492 144.4 391.891C143.883 391.291 143.503 390.585 143.284 389.824C143.064 389.063 143.012 388.263 143.13 387.48L150.13 342.2V342.02L150.36 340.51L161.23 342.18L159.77 351.65L159.71 352.03L155 382.81H163.49L177 363.1L177.35 362.59L182.75 354.7C186.237 356.227 189.855 357.435 193.56 358.31Z" fill="white"/>
<path d="M344.32 391.89C343.805 392.493 343.166 392.976 342.446 393.308C341.726 393.639 340.942 393.811 340.15 393.81H322.34C321.446 393.81 320.566 393.592 319.775 393.176C318.984 392.759 318.306 392.157 317.8 391.42L301.13 367L300.59 366.21L295.17 358.3C298.879 357.436 302.504 356.241 306 354.73L311.22 362.36L311.71 363.08L325.21 382.81H333.71L329 352.13L328.87 351.3L327.47 342.18L338.34 340.51L338.51 341.59L338.63 342.36L345.56 387.48C345.686 388.261 345.64 389.06 345.426 389.822C345.212 390.583 344.834 391.289 344.32 391.89Z" fill="white"/>
<path d="M225.69 370.16H233.79V370.17H225.69V370.16Z" fill="black"/>
<path d="M234.17 360.11H228.27H261C252.073 360.103 243.13 360.103 234.17 360.11Z" fill="black"/>
</svg>
